public/logos/1867/CN.svg

<svg version="1.1" id="Layer_1" xmlns="http://www.w3.org/2000/svg" xmlns:xlink="http://www.w3.org/1999/xlink" x="0" y="0" viewBox="0 0 283.5 283.5" xml:space="preserve"><style>.st0{fill:#f04d4b}</style><symbol id="New_Symbol_5" viewBox="-17 -17 34 34"><circle class="st0" r="17"/><path d="M16.8-2.8c.1.4.1.7.2 1.1L8.5 0l8.4 1.7c0 .4-.1.7-.2 1.1l-8.5-.6L15.9 6c-.1.3-.3.7-.4 1L7.4 4.3l6.4 5.6c-.2.3-.4.6-.7.9L6 6l4.8 7.1c-.3.2-.6.4-.9.7L4.3 7.4 7 15.5c-.3.2-.7.3-1 .4L2.2 8.2l.6 8.5c-.4.1-.7.1-1.1.2L0 8.5l-1.7 8.4c-.4 0-.7-.1-1.1-.2l.6-8.5-3.8 7.7c-.3-.1-.7-.3-1-.4l2.8-8.1-5.6 6.4c-.3-.2-.6-.4-.9-.7L-6 6l-7.1 4.8c-.2-.3-.4-.6-.7-.9l6.4-5.6-8.1 2.7c-.2-.3-.3-.7-.4-1l7.7-3.8-8.5.6c-.1-.4-.1-.7-.2-1.1L-8.5 0l-8.4-1.7c0-.4.1-.7.2-1.1l8.5.6-7.7-3.8c.1-.3.3-.7.4-1l8.1 2.8-6.4-5.6c.2-.3.4-.6.7-.9L-6-6l-4.8-7.1c.3-.2.6-.4.9-.7l5.6 6.4-2.7-8.1c.3-.2.7-.3 1-.4l3.8 7.7-.6-8.5c.4-.1.7-.1 1.1-.2L0-8.5l1.7-8.4c.4 0 .7.1 1.1.2l-.6 8.5L6-15.9c.3.1.7.3 1 .4L4.3-7.4l5.6-6.4c.3.2.6.4.9.7L6-6l7.1-4.8c.2.3.4.6.7.9L7.4-4.3 15.5-7c.2.3.3.7.4 1L8.2-2.2l8.6-.6z" fill="#fff"/><path class="st0" d="M3-7c0 .1-.1.3-.1.4.3 0 .6-.1.8-.2.2 0 .3-.1.5-.1s.3-.1.5-.1c0 .1 0 .2-.1.3 0 .1 0 .2.1.3.2.3.5.3.7.4.3 0 .5 0 .8.1.1 0 .3.1.2.2 0 .1-.2.2-.3.2-.1.1-.2.1-.3.2-.1.1-.2.1-.2.2-.1.1-.2.2-.1.4 0 .1.3.2.3.3.1 0 .2.1.3.1 0 0 .1 0 .1.1H4.9c-.7 0-1.4-.1-2 0-.1.3.6.5.8.5.2 0 .5 0 .7.1.4.1.8.2 1.2.2.3 0 .6.2.8.3.2.1.4.2.5.4.1.1.4.4.2.5-.1.1-.7.1-.5.3l.1.1c.1 0 .1 0 .2.1.1 0 .2.1.3.1.2.1.4.3.6.4.1.1.5.2.4.4-.3 0-.6-.1-.9-.1-.1.1-.2.1-.3.3-.1.1.1.3.2.4.4.6.9 1.1 1 1.8 0 0-.2-.1-.3-.1-.1 0-.2-.1-.3-.1-.2 0-.4-.1-.5.1 0 .2.1.3.2.4.1.2.3.4.3.6-.2 0-.2-.2-.4-.2-.1-.1-.1-.1-.3-.1v.4c.2.1.3.3.4.4.1.1.1.3.1.4 0 .1.1.3 0 .4-.1.1-.4-.1-.5-.2-.3-.1-.9-.4-1 0 0 .1.1.3 0 .4-.1 0-.3-.1-.4-.2l-.6-.6c-.1-.2-.2-.4-.4-.5-.1-.1-.4-.2-.4.1l.1.4c-.2-.1-.3-.2-.4-.4-.1-.1-.1-.2-.2-.3 0-.1-.1-.2-.2-.3-.1-.3-.2-.5-.5-.8l-.3-.3C2.5 1 2.4.9 2.3.9c0 .2 0 .6.1.8l.3.6c.3.4.6.7.6 1.2 0 .1 0 .3.1.4-.2-.1-.2-.3-.3-.3-.1.2 0 .4 0 .6 0 .2.1.4.1.6 0 .2.1.3.1.5v.3c0 .1.1.2.1.3-.1 0-.1-.1-.2-.1 0-.2-.1-.2-.2-.3-.2-.2-.5-.3-.7-.5-.1-.2-.5-.7-.7-.3-.1.3-.1.6 0 .9 0 .1.1.3.1.4 0 .1 0 .3-.1.4-.1-.1-.3-.3-.4-.3-.2-.1-.2 0-.3.2 0 .1-.1.2-.2.3 0 .1-.1.2-.1.3 0 .2 0 .3-.1.5s-.1.3-.2.5c-.1.1-.2.4-.3.5v-.1l-.1.1c.1-.1-.4-.6-.4-.7-.1-.3-.3-.6-.3-.9 0-.3.1-.6-.2-.8-.3-.1-.2.5-.5.5-.1-.4.1-.7.1-1.1V4.2c-.2-.1-.5.2-.6.3-.2.1-.3.3-.5.5-.1.1-.3.2-.5.3 0 0-.1.1-.2.1-.1.1-.1.2-.2.2 0-.3.1-.6.3-.8.1-.2.3-.4.3-.6-.1-.3-.7.5-.8.5-.1-.3.3-.7.5-1l.3-.6c0-.1.1-.2.2-.3.1-.1.2-.2.2-.3 0-.2.1-.4.2-.5 0-.2.2-.4.2-.6-.2 0-.4.3-.5.4-.5.3-1 .5-1.4.7-.2.1-.5.3-.6.5-.1.1-.2.5-.4.4-.1-.2.2-.4.1-.5-.1-.1-.4 0-.5.1l-.6.3c-.2.1-.4.2-.6.2.1-.1.2-.2.2-.3-.3 0-.6.1-.9.2-.1 0-.3.1-.4.1H-8c0-.2.2-.3.3-.4.1-.1.3-.2.4-.3.2-.1.4-.3.5-.5.1-.1.1-.4 0-.5-.1-.1-.2 0-.3 0h-.3c0-.1.1-.3.2-.4 0-.2.2-.3.2-.4.2-.2 0-.5-.3-.4-.1 0-.2.2-.3.1-.1-.1 0-.3.1-.3.4-.3.7-.4.9-.7.1-.1.2-.3.3-.4.1-.1.2-.2.2-.3v-.2c0-.1 0-.1-.1-.1s-.2-.1-.4-.1c-.3 0-.5 0-.8.1h-.3c-.1 0-.1 0-.2-.1h-.4c0-.1.3-.3.4-.3.2-.2.4-.3.6-.4.3-.1.5-.3.8-.5H-7c-.1-.2.4-.4.5-.5.2-.2.4-.3.6-.4.3-.2.7-.4 1-.5.4-.1.8-.2 1.2-.2h.9c.1 0 .2-.1.3-.1 0-.2-.3-.2-.4-.2h-.7c0-.1.4-.1.2-.3h-.1s-.1 0-.1-.1c-.1-.1-.3-.1-.5 0s-.3 0-.5 0h-.3c-.1 0-.2 0-.3-.1 0-.2.2-.4.3-.5 0-.2 0-.4-.1-.5 0-.2-.2-.3-.3-.3-.1-.1-.4-.2-.3-.4.1-.2.7-.1.9-.1.1 0 .3 0 .4.1.1 0 .2.2.4.2.1 0 .4.1.4-.1.1-.3-.1-.5-.3-.6.2.1.3 0 .5 0s.3.1.5.2.3.2.5.2c.1 0 .3 0 .5.1v-.4c0-.1-.1-.2-.2-.3h.3c.1 0 .2.1.3.2l.4.4c.1.1.3.2.4.3.1.2.3.4.4.6 0 .1 0 .2.1.2.1.2.1 0 .1-.1 0-.2 0-.4-.1-.6L-.4-7c-.1-.2-.1-.4-.2-.5-.2-.2-.4-.4-.4-.6 0-.1.1-.1.2-.2s.2-.1.3-.2c0 .1.1.2.1.3.1.2.2.3.2.4.1.2.3.5.4.7.1.2.2.5.3.7 0 .1.1.3.1.4v.3c.1 0 .2-.1.3-.1.3 0 .5-.1.7-.2.1-.1.2-.2.4-.3.3-.2.6-.5 1-.7z"/><linearGradient id="SVGID_1_" gradientUnits="userSpaceOnUse" x1="12.026" y1="12.026" x2="-12.026" y2="-12.026"><stop offset="0" stop-color="#eded92"/><stop offset=".285" stop-color="#e0a557"/><stop offset=".525" stop-color="#eded92"/><stop offset="1" stop-color="#a1804a"/></linearGradient><path d="M17 0c0-9.4-7.6-17-17-17S-17-9.4-17 0s7.6 17 17 17S17 9.4 17 0zM0 15.7c-8.6 0-15.7-7-15.7-15.7s7-15.7 15.7-15.7c8.6 0 15.7 7 15.7 15.7S8.6 15.7 0 15.7z" fill="url(#SVGID_1_)"/></symbol><use xlink:href="#New_Symbol_5" width="34" height="34" x="-17" y="-17" transform="matrix(8.1782 0 0 -8.1782 141.732 141.732)" overflow="visible"/></svg>

<?xml version="1.0" encoding="utf-8"?>
<!-- Generator: Adobe Illustrator 25.0.1, SVG Export Plug-In . SVG Version: 6.00 Build 0)  -->
<svg version="1.1" id="Layer_1" xmlns="http://www.w3.org/2000/svg" xmlns:xlink="http://www.w3.org/1999/xlink" x="0px" y="0px"
	 viewBox="0 0 283.5 283.5" style="enable-background:new 0 0 283.5 283.5;" xml:space="preserve">
<style type="text/css">
	.st0{fill:#F04D4B;}
	.st1{fill:#FFFFFF;}
	.st2{display:none;fill:#F04D4B;}
	.st3{fill:url(#SVGID_1_);}
</style>
<symbol  id="New_Symbol_5" viewBox="-17 -17 34 34">
	<circle class="st0" cx="0" cy="0" r="17"/>
	<path class="st1" d="M16.8-2.8c0.1,0.4,0.1,0.7,0.2,1.1L8.5,0l8.4,1.7c0,0.4-0.1,0.7-0.2,1.1L8.2,2.2L15.9,6
		c-0.1,0.3-0.3,0.7-0.4,1L7.4,4.3l6.4,5.6c-0.2,0.3-0.4,0.6-0.7,0.9L6,6l4.8,7.1c-0.3,0.2-0.6,0.4-0.9,0.7L4.3,7.4L7,15.5
		c-0.3,0.2-0.7,0.3-1,0.4L2.2,8.2l0.6,8.5c-0.4,0.1-0.7,0.1-1.1,0.2L0,8.5l-1.7,8.4c-0.4,0-0.7-0.1-1.1-0.2l0.6-8.5L-6,15.9
		c-0.3-0.1-0.7-0.3-1-0.4l2.8-8.1l-5.6,6.4c-0.3-0.2-0.6-0.4-0.9-0.7L-6,6l-7.1,4.8c-0.2-0.3-0.4-0.6-0.7-0.9l6.4-5.6L-15.5,7
		c-0.2-0.3-0.3-0.7-0.4-1l7.7-3.8l-8.5,0.6c-0.1-0.4-0.1-0.7-0.2-1.1L-8.5,0l-8.4-1.7c0-0.4,0.1-0.7,0.2-1.1l8.5,0.6L-15.9-6
		c0.1-0.3,0.3-0.7,0.4-1l8.1,2.8l-6.4-5.6c0.2-0.3,0.4-0.6,0.7-0.9L-6-6l-4.8-7.1c0.3-0.2,0.6-0.4,0.9-0.7l5.6,6.4L-7-15.5
		c0.3-0.2,0.7-0.3,1-0.4l3.8,7.7l-0.6-8.5c0.4-0.1,0.7-0.1,1.1-0.2L0-8.5l1.7-8.4c0.4,0,0.7,0.1,1.1,0.2L2.2-8.2L6-15.9
		c0.3,0.1,0.7,0.3,1,0.4L4.3-7.4l5.6-6.4c0.3,0.2,0.6,0.4,0.9,0.7L6-6l7.1-4.8c0.2,0.3,0.4,0.6,0.7,0.9L7.4-4.3L15.5-7
		c0.2,0.3,0.3,0.7,0.4,1L8.2-2.2L16.8-2.8z"/>
	<g id="Nouveau_symbole_5_">
	</g>
	<g id="New_Symbol_2_4_">
		<g id="Nouveau_symbole_4_">
		</g>
	</g>
	<path id="_x31__3_" class="st2" d="M0,7.8l-1.4-2.7C-1.6,4.8-1.9,4.9-2.2,5l-1,0.5l0.8-4.1C-2.3,0.7-2.8,0.7-3.1,1l-1.8,2l-0.3-1
		c0-0.1-0.2-0.3-0.4-0.2l-2.3,0.5l0.6-2.2C-7.1-0.4-7-0.6-7.4-0.7l-0.8-0.4l3.9-3.2C-4.1-4.5-4-4.7-4.1-4.9L-4.4-6
		c1.4,0.2,2.6,0.4,3.9,0.5c0.1,0,0.3-0.2,0.3-0.3L-0.4-10h0.7L0.2-5.8c0,0.1,0.2,0.3,0.3,0.3C1.9-5.6,3.1-5.8,4.4-6L4.1-4.9
		C4-4.7,4.1-4.5,4.3-4.3l3.9,3.2L7.4-0.7C7-0.6,7.1-0.4,7.3,0.1l0.6,2.2L5.6,1.8C5.4,1.8,5.2,1.9,5.2,2l-0.3,1L3.1,1
		C2.8,0.7,2.3,0.7,2.4,1.5l0.8,4.1L2.2,5C1.9,4.9,1.6,4.8,1.4,5.1L0,7.8z"/>
	<path class="st0" d="M3-7c0,0.1-0.1,0.3-0.1,0.4c0.3,0,0.6-0.1,0.8-0.2c0.2,0,0.3-0.1,0.5-0.1c0.2,0,0.3-0.1,0.5-0.1
		c0,0.1,0,0.2-0.1,0.3c0,0.1,0,0.2,0.1,0.3C4.9-6.1,5.2-6.1,5.4-6c0.3,0,0.5,0,0.8,0.1c0.1,0,0.3,0.1,0.2,0.2c0,0.1-0.2,0.2-0.3,0.2
		C6-5.4,5.9-5.4,5.8-5.3C5.7-5.2,5.6-5.2,5.6-5.1C5.5-5,5.4-4.9,5.5-4.7c0,0.1,0.3,0.2,0.3,0.3C5.9-4.4,6-4.3,6.1-4.3
		c0,0,0.1,0,0.1,0.1c0,0-0.2,0-0.3,0c-0.3,0-0.7,0-1,0c-0.7,0-1.4-0.1-2,0C2.8-3.9,3.5-3.7,3.7-3.7c0.2,0,0.5,0,0.7,0.1
		c0.4,0.1,0.8,0.2,1.2,0.2c0.3,0,0.6,0.2,0.8,0.3C6.6-3,6.8-2.9,6.9-2.7C7-2.6,7.3-2.3,7.1-2.2C7-2.1,6.4-2.1,6.6-1.9
		c0,0,0.1,0.1,0.1,0.1c0.1,0,0.1,0,0.2,0.1c0.1,0,0.2,0.1,0.3,0.1c0.2,0.1,0.4,0.3,0.6,0.4c0.1,0.1,0.5,0.2,0.4,0.4
		c-0.3,0-0.6-0.1-0.9-0.1C7.2-0.8,7.1-0.8,7-0.6C6.9-0.5,7.1-0.3,7.2-0.2c0.4,0.6,0.9,1.1,1,1.8C8.2,1.6,8,1.5,7.9,1.5
		c-0.1,0-0.2-0.1-0.3-0.1c-0.2,0-0.4-0.1-0.5,0.1C7.1,1.7,7.2,1.8,7.3,1.9c0.1,0.2,0.3,0.4,0.3,0.6C7.4,2.5,7.4,2.3,7.2,2.3
		C7.1,2.2,7.1,2.2,6.9,2.2c0,0.1,0,0.3,0,0.4C7.1,2.7,7.2,2.9,7.3,3c0.1,0.1,0.1,0.3,0.1,0.4c0,0.1,0.1,0.3,0,0.4
		C7.3,3.9,7,3.7,6.9,3.6c-0.3-0.1-0.9-0.4-1,0c0,0.1,0.1,0.3,0,0.4C5.8,4,5.6,3.9,5.5,3.8C5.3,3.6,5.1,3.4,4.9,3.2
		C4.8,3,4.7,2.8,4.5,2.7C4.4,2.6,4.1,2.5,4.1,2.8c0,0,0.1,0.4,0.1,0.4C4,3.1,3.9,3,3.8,2.8C3.7,2.7,3.7,2.6,3.6,2.5
		C3.6,2.4,3.5,2.3,3.4,2.2C3.3,1.9,3.2,1.7,2.9,1.4C2.8,1.3,2.7,1.2,2.6,1.1C2.5,1,2.4,0.9,2.3,0.9c0,0.2,0,0.6,0.1,0.8
		c0.1,0.2,0.2,0.4,0.3,0.6C3,2.7,3.3,3,3.3,3.5c0,0.1,0,0.3,0.1,0.4C3.2,3.8,3.2,3.6,3.1,3.6C3,3.8,3.1,4,3.1,4.2
		c0,0.2,0.1,0.4,0.1,0.6c0,0.2,0.1,0.3,0.1,0.5c0,0.1,0,0.2,0,0.3c0,0.1,0.1,0.2,0.1,0.3c-0.1,0-0.1-0.1-0.2-0.1
		C3.2,5.6,3.1,5.6,3,5.5C2.8,5.3,2.5,5.2,2.3,5C2.2,4.8,1.8,4.3,1.6,4.7C1.5,5,1.5,5.3,1.6,5.6c0,0.1,0.1,0.3,0.1,0.4
		c0,0.1,0,0.3-0.1,0.4C1.5,6.3,1.3,6.1,1.2,6.1C1,6,1,6.1,0.9,6.3c0,0.1-0.1,0.2-0.2,0.3C0.7,6.7,0.6,6.8,0.6,6.9
		c0,0.2,0,0.3-0.1,0.5C0.4,7.6,0.4,7.7,0.3,7.9C0.2,8,0.1,8.3,0,8.4c0,0,0-0.1,0-0.1l-0.1,0.1C0,8.3-0.5,7.8-0.5,7.7
		c-0.1-0.3-0.3-0.6-0.3-0.9c0-0.3,0.1-0.6-0.2-0.8c-0.3-0.1-0.2,0.5-0.5,0.5c-0.1-0.4,0.1-0.7,0.1-1.1c0-0.2,0-0.4,0-0.6
		c0-0.1,0-0.2,0-0.3c0-0.1,0-0.3,0-0.3C-1.6,4.1-1.9,4.4-2,4.5c-0.2,0.1-0.3,0.3-0.5,0.5c-0.1,0.1-0.3,0.2-0.5,0.3
		C-3,5.3-3.1,5.4-3.2,5.4c-0.1,0.1-0.1,0.2-0.2,0.2c0-0.3,0.1-0.6,0.3-0.8C-3,4.6-2.8,4.4-2.8,4.2c-0.1-0.3-0.7,0.5-0.8,0.5
		C-3.7,4.4-3.3,4-3.1,3.7c0.1-0.2,0.2-0.4,0.3-0.6c0-0.1,0.1-0.2,0.2-0.3c0.1-0.1,0.2-0.2,0.2-0.3C-2.4,2.3-2.3,2.1-2.2,2
		C-2.2,1.8-2,1.6-2,1.4c-0.2,0-0.4,0.3-0.5,0.4C-3,2.1-3.5,2.3-3.9,2.5C-4.1,2.6-4.4,2.8-4.5,3c-0.1,0.1-0.2,0.5-0.4,0.4
		C-5,3.2-4.7,3-4.8,2.9c-0.1-0.1-0.4,0-0.5,0.1c-0.2,0.1-0.4,0.2-0.6,0.3c-0.2,0.1-0.4,0.2-0.6,0.2c0.1-0.1,0.2-0.2,0.2-0.3
		c-0.3,0-0.6,0.1-0.9,0.2c-0.1,0-0.3,0.1-0.4,0.1c-0.1,0-0.3,0-0.4,0c0-0.2,0.2-0.3,0.3-0.4c0.1-0.1,0.3-0.2,0.4-0.3
		c0.2-0.1,0.4-0.3,0.5-0.5c0.1-0.1,0.1-0.4,0-0.5c-0.1-0.1-0.2,0-0.3,0c-0.1,0-0.2,0-0.3,0c0-0.1,0.1-0.3,0.2-0.4
		C-7.2,1.2-7,1.1-7,1c0.2-0.2,0-0.5-0.3-0.4c-0.1,0-0.2,0.2-0.3,0.1c-0.1-0.1,0-0.3,0.1-0.3C-7.1,0.1-6.8,0-6.6-0.3
		c0.1-0.1,0.2-0.3,0.3-0.4c0.1-0.1,0.2-0.2,0.2-0.3c0,0,0-0.2,0-0.2c0-0.1,0-0.1-0.1-0.1c-0.1,0-0.2-0.1-0.4-0.1
		c-0.3,0-0.5,0-0.8,0.1c-0.1,0-0.2,0-0.3,0c-0.1,0-0.1,0-0.2-0.1c-0.1,0-0.1,0-0.2,0c-0.1,0-0.2,0-0.2,0C-8.3-1.5-8-1.7-7.9-1.7
		C-7.7-1.9-7.5-2-7.3-2.1C-7-2.2-6.8-2.4-6.5-2.6c-0.2,0-0.3,0-0.5,0C-7.1-2.8-6.6-3-6.5-3.1c0.2-0.2,0.4-0.3,0.6-0.4
		c0.3-0.2,0.7-0.4,1-0.5c0.4-0.1,0.8-0.2,1.2-0.2c0.2,0,0.4,0,0.6,0c0.1,0,0.2,0,0.3,0c0.1,0,0.2-0.1,0.3-0.1c0-0.2-0.3-0.2-0.4-0.2
		c-0.1,0-0.2,0-0.2,0c-0.1,0-0.5,0-0.5,0c0-0.1,0.4-0.1,0.2-0.3c0,0-0.1,0-0.1,0c0,0-0.1,0-0.1-0.1c-0.1-0.1-0.3-0.1-0.5,0
		c-0.2,0.1-0.3,0-0.5,0c-0.1,0-0.2,0-0.3,0c-0.1,0-0.2,0-0.3-0.1c0-0.2,0.2-0.4,0.3-0.5C-4.9-5.7-4.9-5.9-5-6
		C-5-6.2-5.2-6.3-5.3-6.3c-0.1-0.1-0.4-0.2-0.3-0.4c0.1-0.2,0.7-0.1,0.9-0.1c0.1,0,0.3,0,0.4,0.1c0.1,0,0.2,0.2,0.4,0.2
		c0.1,0,0.4,0.1,0.4-0.1c0.1-0.3-0.1-0.5-0.3-0.6c0.2,0.1,0.3,0,0.5,0c0.2,0,0.3,0.1,0.5,0.2c0.2,0.1,0.3,0.2,0.5,0.2
		c0.1,0,0.3,0,0.5,0.1c0-0.1,0-0.3,0-0.4c0-0.1-0.1-0.2-0.2-0.3c0,0,0.2,0,0.3,0c0.1,0,0.2,0.1,0.3,0.2C-1.3-7.1-1.1-6.9-1-6.8
		c0.1,0.1,0.3,0.2,0.4,0.3c0.1,0.2,0.3,0.4,0.4,0.6c0,0.1,0,0.2,0.1,0.2C0-5.5,0-5.7,0-5.8C0-6,0-6.2-0.1-6.4
		c-0.1-0.2-0.2-0.4-0.3-0.6c-0.1-0.2-0.1-0.4-0.2-0.5C-0.8-7.7-1-7.9-1-8.1c0-0.1,0.1-0.1,0.2-0.2c0.1-0.1,0.2-0.1,0.3-0.2
		c0,0.1,0.1,0.2,0.1,0.3C-0.3-8-0.2-7.9-0.2-7.8c0.1,0.2,0.3,0.5,0.4,0.7c0.1,0.2,0.2,0.5,0.3,0.7c0,0.1,0.1,0.3,0.1,0.4
		c0,0.1,0,0.2,0,0.3c0.1,0,0.2-0.1,0.3-0.1C1.2-5.8,1.4-5.9,1.6-6C1.7-6.1,1.8-6.2,2-6.3C2.3-6.5,2.6-6.8,3-7z"/>
	<linearGradient id="SVGID_1_" gradientUnits="userSpaceOnUse" x1="12.0263" y1="12.0263" x2="-12.0263" y2="-12.0263">
		<stop  offset="0" style="stop-color:#EDED92"/>
		<stop  offset="0.2849" style="stop-color:#E0A557"/>
		<stop  offset="0.5251" style="stop-color:#EDED92"/>
		<stop  offset="1" style="stop-color:#A1804A"/>
	</linearGradient>
	<path class="st3" d="M17,0c0-9.4-7.6-17-17-17S-17-9.4-17,0s7.6,17,17,17S17,9.4,17,0z M0,15.7c-8.6,0-15.7-7-15.7-15.7
		s7-15.7,15.7-15.7c8.6,0,15.7,7,15.7,15.7S8.6,15.7,0,15.7z"/>
</symbol>
<use xlink:href="#New_Symbol_5"  width="34" height="34" x="-17" y="-17" transform="matrix(8.1782 0 0 -8.1782 141.7323 141.7323)" style="overflow:visible;"/>
</svg>
